packages/icons/svg/Device_Laptop_24px.svg

<svg xmlns="http://www.w3.org/2000/svg" viewBox="0 0 24 24"><path d="M21 14h-1V5a1 1 0 00-1-1H5a1 1 0 00-1 1v9H3a1 1 0 00-1 1v2.5A2.5 2.5 0 004.5 20h15a2.5 2.5 0 002.5-2.5V15a1 1 0 00-1-1zM6 6h12v8H6zm14 11.5a.5.5 0 01-.5.5h-15a.5.5 0 01-.5-.5V16h3.5a1 1 0 001 1h7a1 1 0 001-1H20z"/></svg>

<svg xmlns="http://www.w3.org/2000/svg" viewBox="0 0 24 24"><defs></defs><g id="Calque_5" ><path  d="M21,14H20V5a1,1,0,0,0-1-1H5A1,1,0,0,0,4,5v9H3a1,1,0,0,0-1,1v2.5A2.5,2.5,0,0,0,4.5,20h15A2.5,2.5,0,0,0,22,17.5V15A1,1,0,0,0,21,14ZM6,6H18v8H6ZM20,17.5a.5.5,0,0,1-.5.5H4.5a.5.5,0,0,1-.5-.5V16H7.5a1,1,0,0,0,1,1h7a1,1,0,0,0,1-1H20Z"/></g></svg>
